styles/4/Numix-Circle/48x48/apps/shares.svg

<?xml version="1.0" encoding="UTF-8" standalone="no"?>
<svg
   xmlns:dc="http://purl.org/dc/elements/1.1/"
   xmlns:cc="http://creativecommons.org/ns#"
   xmlns:rdf="http://www.w3.org/1999/02/22-rdf-syntax-ns#"
   xmlns:svg="http://www.w3.org/2000/svg"
   xmlns="http://www.w3.org/2000/svg"
   xmlns:xlink="http://www.w3.org/1999/xlink"
   xmlns:sodipodi="http://sodipodi.sourceforge.net/DTD/sodipodi-0.dtd"
   xmlns:inkscape="http://www.inkscape.org/namespaces/inkscape"
   viewBox="0 0 48 48"
   id="svg2"
   version="1.1"
   inkscape:version="0.91 r"
   width="100%"
   height="100%"
   sodipodi:docname="shares.svg">
  <metadata
     id="metadata65">
    <rdf:RDF>
      <cc:Work
         rdf:about="">
        <dc:format>image/svg+xml</dc:format>
        <dc:type
           rdf:resource="http://purl.org/dc/dcmitype/StillImage" />
      </cc:Work>
    </rdf:RDF>
  </metadata>
  <sodipodi:namedview
     pagecolor="#ffffff"
     bordercolor="#666666"
     borderopacity="1"
     objecttolerance="10"
     gridtolerance="10"
     guidetolerance="10"
     inkscape:pageopacity="0"
     inkscape:pageshadow="2"
     inkscape:window-width="1280"
     inkscape:window-height="998"
     id="namedview63"
     showgrid="false"
     inkscape:zoom="12.677553"
     inkscape:cx="25.284717"
     inkscape:cy="28.796845"
     inkscape:window-x="0"
     inkscape:window-y="0"
     inkscape:window-maximized="1"
     inkscape:current-layer="svg2">
    <inkscape:grid
       type="xygrid"
       id="grid4159" />
  </sodipodi:namedview>
  <defs
     id="defs4">
    <linearGradient
       id="linearGradient3880">
      <stop
         style="stop-color:#bc4b00;stop-opacity:1;"
         offset="0"
         id="stop3882" />
      <stop
         style="stop-color:#d05300;stop-opacity:1;"
         offset="1"
         id="stop3884" />
    </linearGradient>
    <linearGradient
       inkscape:collect="always"
       xlink:href="#linearGradient3880"
       id="linearGradient3886"
       x1="1"
       y1="24"
       x2="47"
       y2="24"
       gradientUnits="userSpaceOnUse" />
    <linearGradient
       inkscape:collect="always"
       xlink:href="#linearGradient3880"
       id="linearGradient3888"
       gradientUnits="userSpaceOnUse"
       x1="1"
       y1="24"
       x2="47"
       y2="24" />
  </defs>
  <g
     id="g21">
    <path
       d="m 36.31 5 c 5.859 4.062 9.688 10.831 9.688 18.5 c 0 12.426 -10.07 22.5 -22.5 22.5 c -7.669 0 -14.438 -3.828 -18.5 -9.688 c 1.037 1.822 2.306 3.499 3.781 4.969 c 4.085 3.712 9.514 5.969 15.469 5.969 c 12.703 0 23 -10.298 23 -23 c 0 -5.954 -2.256 -11.384 -5.969 -15.469 c -1.469 -1.475 -3.147 -2.744 -4.969 -3.781 z m 4.969 3.781 c 3.854 4.113 6.219 9.637 6.219 15.719 c 0 12.703 -10.297 23 -23 23 c -6.081 0 -11.606 -2.364 -15.719 -6.219 c 4.16 4.144 9.883 6.719 16.219 6.719 c 12.703 0 23 -10.298 23 -23 c 0 -6.335 -2.575 -12.06 -6.719 -16.219 z"
       opacity="0.05"
       id="path23" />
    <path
       d="m 41.28 8.781 c 3.712 4.085 5.969 9.514 5.969 15.469 c 0 12.703 -10.297 23 -23 23 c -5.954 0 -11.384 -2.256 -15.469 -5.969 c 4.113 3.854 9.637 6.219 15.719 6.219 c 12.703 0 23 -10.298 23 -23 c 0 -6.081 -2.364 -11.606 -6.219 -15.719 z"
       opacity="0.1"
       id="path25" />
    <path
       d="m 31.25 2.375 c 8.615 3.154 14.75 11.417 14.75 21.13 c 0 12.426 -10.07 22.5 -22.5 22.5 c -9.708 0 -17.971 -6.135 -21.12 -14.75 a 23 23 0 0 0 44.875 -7 a 23 23 0 0 0 -16 -21.875 z"
       opacity="0.2"
       id="path27" />
  </g>
  <g
     id="g29"
     style="fill:url(#linearGradient3886);fill-opacity:1"
     transform="matrix(0,-1,1,0,0,48)">
    <path
       d="M 24,1 C 36.703,1 47,11.297 47,24 47,36.703 36.703,47 24,47 11.297,47 1,36.703 1,24 1,11.297 11.297,1 24,1 z"
       id="path31"
       style="fill:url(#linearGradient3888);fill-opacity:1"
       inkscape:connector-curvature="0" />
  </g>
  <g
     id="g33" />
  <g
     id="g59">
    <path
       d="m 40.03 7.531 c 3.712 4.084 5.969 9.514 5.969 15.469 0 12.703 -10.297 23 -23 23 c -5.954 0 -11.384 -2.256 -15.469 -5.969 4.178 4.291 10.01 6.969 16.469 6.969 c 12.703 0 23 -10.298 23 -23 0 -6.462 -2.677 -12.291 -6.969 -16.469 z"
       opacity="0.1"
       id="path61" />
  </g>
  <path
     inkscape:connector-curvature="0"
     style="fill:#000000;fill-opacity:0.10196078;stroke:none"
     d="m 16,14 c -1,0 -1,1 -1,2 l 0,0.25 0,0.75 0,2 c -0.1939,0 -0.385453,0.01149 -0.5625,0.0625 -0.05562,0.0153 -0.104073,0.04268 -0.15625,0.0625 -0.05622,0.02145 -0.102627,0.06751 -0.15625,0.09375 -0.06221,0.03122 -0.13019,0.05597 -0.1875,0.09375 -0.128371,0.08029 -0.237257,0.174757 -0.34375,0.28125 C 13.471139,19.716361 13.368698,19.848821 13.28125,20 13.11087,20.294551 13,20.633901 13,21 l 0,12 c 0,1.108 0.892,2 2,2 l 20,0 c 1.108,0 2,-0.892 2,-2 L 37,21 C 37,20.633901 36.88913,20.294551 36.71875,20 36.6313,19.848821 36.528861,19.716361 36.40625,19.59375 36.300866,19.482996 36.188282,19.395323 36.0625,19.3125 36.00421,19.27604 35.93715,19.24916 35.875,19.21875 35.82243,19.19239 35.77508,19.14638 35.71875,19.125 35.66699,19.10525 35.616246,19.07799 35.5625,19.0625 35.391167,19.01538 35.207646,19 35,19 l 0,-1 c 0,-1 -1,-2 -2,-2 l -12,0 c 0,-1 0,-2 -1,-2 l -4,0 z"
     id="path5050" />
  <path
     inkscape:connector-curvature="0"
     id="path2998"
     d="m 14.999998,15.000001 17,0 c 1,0 1.999999,1 1.999999,2 l 0,4 c 0,1.108 -0.445999,1.999999 -0.999999,1.999999 l -18,0 c -0.554,0 -1,-0.891999 -1,-1.999999 l 0,-6 z"
     style="fill:#e9a439;fill-opacity:1;stroke:none"
     sodipodi:nodetypes="csssssscc" />
  <path
     style="opacity:0.02999998;fill:#000000;fill-opacity:1;stroke:none"
     d="m 13.999998,17.000001 0,5 19.999999,0 0,-5 z"
     id="path3807"
     inkscape:connector-curvature="0" />
  <rect
     style="fill:#f5c14e;fill-opacity:1;stroke:none"
     id="rect2990"
     width="23.999998"
     height="16.000002"
     x="12"
     y="18"
     rx="2"
     ry="2" />
  <path
     style="fill:#3c2f1b;fill-opacity:1;fill-rule:nonzero;stroke:none;opacity:0.3"
     d="m 27.75,20 c -1.238,0 -2.25,1.008 -2.25,2.25 0,0.093 0.01925,0.19125 0.03125,0.28125 L 21.8125,24.375 C 21.4025,23.98 20.859,23.75 20.25,23.75 19.016,23.75 18,24.758 18,26 c 0,1.238 1.012,2.25 2.25,2.25 0.613,0 1.1565,-0.23 1.5625,-0.625 l 3.71875,1.84375 C 25.52025,29.55875 25.5,29.656 25.5,29.75 25.5,30.988 26.508,32 27.75,32 28.988,32 30,30.992 30,29.75 30,28.512 28.992,27.5 27.75,27.5 c -0.606,0 -1.1565,0.234 -1.5625,0.625 L 22.46875,26.28125 C 22.47175,26.19125 22.5,26.094 22.5,26 c 0,-0.093 -0.01925,-0.19125 -0.03125,-0.28125 L 26.1875,23.875 C 26.5945,24.266 27.145,24.5 27.75,24.5 28.988,24.5 30,23.492 30,22.25 30,21.012 28.992,20 27.75,20 z"
     id="path57"
     inkscape:connector-curvature="0"
     sodipodi:nodetypes="ssccsssccssssccsccsss" />
  <path
     sodipodi:nodetypes="csssscc"
     inkscape:connector-curvature="0"
     id="path3000"
     d="m 13.999998,16.000001 0,-1 c 0,-1 0,-2 1,-2 l 4,0 c 1,0 1,1 1,2 l 0,1 z"
     style="fill:#e9a439;fill-opacity:1;stroke:none" />
  <path
     style="opacity:0.05;fill:#000000;fill-opacity:1;stroke:none"
     d="m 19.999998,15.000001 0,1 1,0 11,0 c 1,0 1.999999,1 1.999999,2 l 0,-1 c 0,-1 -0.999999,-2 -1.999999,-2 l -11,0 z"
     id="path3002"
     inkscape:connector-curvature="0"
     sodipodi:nodetypes="cccscsscc" />
  <path
     style="opacity:0.05;fill:#000000;fill-opacity:1;stroke:none"
     d="m 14.999998,13.000001 c -1,0 -1,1 -1,2 l 0,0.250001 c 0.04687,-0.703101 0.249999,-1.250001 1,-1.250001 l 4,0 c 0.75,0 0.953125,0.5469 1,1.25 l 0,-0.250001 c 0,-1.000001 0,-2.000001 -1,-2.000001 l -4,0 z"
     id="path3780"
     inkscape:connector-curvature="0" />
  <path
     style="opacity:0.1;fill:#ffffff;fill-opacity:1;stroke:none"
     d="m 14,18 c -0.830583,0 -1.346662,0.4031 -1.733211,1.000001 l 23.467586,0 C 35.347831,18.4031 34.830583,18 34,18 z"
     id="rect2991"
     inkscape:connector-curvature="0"
     sodipodi:nodetypes="sccss" />
</svg>

<svg xmlns="http://www.w3.org/2000/svg" viewBox="0 0 48 48">
 <defs>
  <linearGradient id="linearGradient3886" x1="1" x2="47" gradientUnits="userSpaceOnUse">
   <stop style="stop-color:#bc4b00;stop-opacity:1"/>
   <stop offset="1" style="stop-color:#d05300;stop-opacity:1"/>
  </linearGradient>
 </defs>
 <g>
  <path d="m 36.31 5 c 5.859 4.062 9.688 10.831 9.688 18.5 c 0 12.426 -10.07 22.5 -22.5 22.5 c -7.669 0 -14.438 -3.828 -18.5 -9.688 c 1.037 1.822 2.306 3.499 3.781 4.969 c 4.085 3.712 9.514 5.969 15.469 5.969 c 12.703 0 23 -10.298 23 -23 c 0 -5.954 -2.256 -11.384 -5.969 -15.469 c -1.469 -1.475 -3.147 -2.744 -4.969 -3.781 z m 4.969 3.781 c 3.854 4.113 6.219 9.637 6.219 15.719 c 0 12.703 -10.297 23 -23 23 c -6.081 0 -11.606 -2.364 -15.719 -6.219 c 4.16 4.144 9.883 6.719 16.219 6.719 c 12.703 0 23 -10.298 23 -23 c 0 -6.335 -2.575 -12.06 -6.719 -16.219 z" style="opacity:0.05"/>
  <path d="m 41.28 8.781 c 3.712 4.085 5.969 9.514 5.969 15.469 c 0 12.703 -10.297 23 -23 23 c -5.954 0 -11.384 -2.256 -15.469 -5.969 c 4.113 3.854 9.637 6.219 15.719 6.219 c 12.703 0 23 -10.298 23 -23 c 0 -6.081 -2.364 -11.606 -6.219 -15.719 z" style="opacity:0.1"/>
  <path d="m 31.25 2.375 c 8.615 3.154 14.75 11.417 14.75 21.13 c 0 12.426 -10.07 22.5 -22.5 22.5 c -9.708 0 -17.971 -6.135 -21.12 -14.75 a 23 23 0 0 0 44.875 -7 a 23 23 0 0 0 -16 -21.875 z" style="opacity:0.2"/>
 </g>
 <g transform="matrix(0,-1,1,0,0,48)" style="fill:url(#linearGradient3886);fill-opacity:1">
  <path d="M 24,1 C 36.703,1 47,11.297 47,24 47,36.703 36.703,47 24,47 11.297,47 1,36.703 1,24 1,11.297 11.297,1 24,1 z"/>
 </g>
 <g>
  <path d="m 40.03 7.531 c 3.712 4.084 5.969 9.514 5.969 15.469 0 12.703 -10.297 23 -23 23 c -5.954 0 -11.384 -2.256 -15.469 -5.969 4.178 4.291 10.01 6.969 16.469 6.969 c 12.703 0 23 -10.298 23 -23 0 -6.462 -2.677 -12.291 -6.969 -16.469 z" style="opacity:0.1"/>
 </g>
 <path d="m 16 14 c -1 0 -1 1 -1 2 l 0 0.25 0 0.75 0 2 c -0.194 0 -0.385 0.011 -0.563 0.063 -0.056 0.015 -0.104 0.043 -0.156 0.063 -0.056 0.021 -0.103 0.068 -0.156 0.094 -0.062 0.031 -0.13 0.056 -0.188 0.094 -0.128 0.08 -0.237 0.175 -0.344 0.281 c -0.123 0.123 -0.225 0.255 -0.313 0.406 -0.17 0.295 -0.281 0.634 -0.281 1 l 0 12 c 0 1.108 0.892 2 2 2 l 20 0 c 1.108 0 2 -0.892 2 -2 l 0 -12 c 0 -0.366 -0.111 -0.705 -0.281 -1 -0.087 -0.151 -0.19 -0.284 -0.313 -0.406 -0.105 -0.111 -0.218 -0.198 -0.344 -0.281 -0.058 -0.036 -0.125 -0.063 -0.188 -0.094 -0.053 -0.026 -0.1 -0.072 -0.156 -0.094 -0.052 -0.02 -0.103 -0.047 -0.156 -0.063 -0.171 -0.047 -0.355 -0.063 -0.563 -0.063 l 0 -1 c 0 -1 -1 -2 -2 -2 l -12 0 c 0 -1 0 -2 -1 -2 l -4 0 z" style="fill:#000;fill-opacity:0.102;stroke:none"/>
 <path d="m 15 15 17 0 c 1 0 2 1 2 2 l 0 4 c 0 1.108 -0.446 2 -1 2 l -18 0 c -0.554 0 -1 -0.892 -1 -2 l 0 -6 z" style="fill:#e9a439;fill-opacity:1;stroke:none"/>
 <path d="m 14 17 0 5 20 0 0 -5 z" style="fill:#000;opacity:0.03;fill-opacity:1;stroke:none"/>
 <rect width="24" height="16" x="12" y="18" rx="2" style="fill:#f5c14e;fill-opacity:1;stroke:none"/>
 <path d="m 27.75 20 c -1.238 0 -2.25 1.01 -2.25 2.25 0 0.093 0.019 0.191 0.031 0.281 l -3.719 1.844 c -0.41 -0.395 -0.953 -0.625 -1.563 -0.625 -1.234 0 -2.25 1.01 -2.25 2.25 c 0 1.238 1.012 2.25 2.25 2.25 0.613 0 1.157 -0.23 1.563 -0.625 l 3.719 1.844 c -0.011 0.09 -0.031 0.187 -0.031 0.281 0 1.238 1.01 2.25 2.25 2.25 1.238 0 2.25 -1.01 2.25 -2.25 0 -1.238 -1.01 -2.25 -2.25 -2.25 c -0.606 0 -1.157 0.234 -1.563 0.625 l -3.719 -1.844 c 0.003 -0.09 0.031 -0.187 0.031 -0.281 c 0 -0.093 -0.019 -0.191 -0.031 -0.281 l 3.719 -1.844 c 0.407 0.391 0.957 0.625 1.563 0.625 1.238 0 2.25 -1.01 2.25 -2.25 0 -1.238 -1.01 -2.25 -2.25 -2.25 z" style="fill:#3c2f1b;opacity:0.3;fill-opacity:1;stroke:none;fill-rule:nonzero"/>
 <path d="m 14 16 0 -1 c 0 -1 0 -2 1 -2 l 4 0 c 1 0 1 1 1 2 l 0 1 z" style="fill:#e9a439;fill-opacity:1;stroke:none"/>
 <path d="m 20 15 0 1 1 0 11 0 c 1 0 2 1 2 2 l 0 -1 c 0 -1 -1 -2 -2 -2 l -11 0 z" style="fill:#000;opacity:0.05;fill-opacity:1;stroke:none"/>
 <path d="m 15 13 c -1 0 -1 1 -1 2 l 0 0.25 c 0.047 -0.703 0.25 -1.25 1 -1.25 l 4 0 c 0.75 0 0.953 0.547 1 1.25 l 0 -0.25 c 0 -1 0 -2 -1 -2 l -4 0 z" style="fill:#000;opacity:0.05;fill-opacity:1;stroke:none"/>
 <path d="m 14 18 c -0.831 0 -1.347 0.403 -1.733 1 l 23.468 0 c -0.387 -0.597 -0.904 -1 -1.734 -1 z" style="fill:#fff;opacity:0.1;fill-opacity:1;stroke:none"/>
</svg>
